X: 23124
T: Lauren McKowen's
R: reel
M: 4/4
K: Amajor
|:ae ~e2 fecf|ecBd cA ~A2|ABcA BABc|ABce fffe|
ae ~e2 fecf|ecBd cA ~A2|ABcA BABc|1 ABce a3 e:|2 ABce a3 f||
|:e3 f B3 c|BABc BA ~A2|ABcA BABc|ABce fffa|
e3 f B3 c|BABc BA ~A2|ABcA BABc|1 ABce a3 f:|2 ABce a4||

